X:86
T:Berceuse pour Hannah
C:Richard Forest
R:waltz
M:3/4
L:1/4
K:D
DE |: F>ED | GFE | A3 | F2D | d3 | c2B | A3 | FGA | B>AG | c>BA |
dcd | ed>B | A>FD |1 E>DE | F>ED | (3E/F/E/ DE :|2 E>FE | D3-D3/2 z/c/d/ |:
ecA | E3/2 z/B/c/ | dBG | E3/2 z/A/B/ | caf | (3g/a/g/ ed | e3- | e3/2 z/c/d/ | e (3c/d/c/ A |
E3/2 z/B/c/ | dBG | E3/2 z/A/B/ | c (3B/c/B/ A | GFG | A3- |1 A3/2 cd/ :|2 ADE |]
